icons/game-analytics.svg

<?xml version="1.0" encoding="UTF-8"?>
<svg width="256px" height="256px" viewBox="0 0 256 256" version="1.1" xmlns="http://www.w3.org/2000/svg" xmlns:xlink="http://www.w3.org/1999/xlink" preserveAspectRatio="xMidYMid">
    <g>
        <path d="M128,0 C57.307552,0 0,57.307552 0,128 C0,198.692448 57.307552,256 128,256 C198.692448,256 256,198.692448 256,128 C256,94.0522893 242.514324,61.4949884 218.509668,37.490332 C194.505012,13.4856756 161.947711,0 128,0 Z M192.512,177.9712 L163.703467,102.229333 C163.703467,102.229333 152.064,132.5056 148.804267,141.482667 C146.551467,147.712 144.896,152.3712 140.9024,157.952 C135.259874,165.797795 127.590965,171.962419 118.715733,175.786667 C99.3948561,183.830777 77.1310521,179.448984 62.2994366,164.683241 C47.4678211,149.917497 42.986972,127.673418 50.9450016,108.316926 C58.9030312,88.9604346 77.7339519,76.3005174 98.6624,76.2368 C110.293767,76.0555702 121.617302,79.9771144 130.645333,87.3130667 L123.630933,105.813333 C118.9888,101.034667 112.674133,94.4810667 98.3722667,94.4810667 C80.0660088,94.8574019 65.3606466,109.691162 65.1434667,128 C65.0977817,143.841047 76.1590137,157.546723 91.6525853,160.846739 C107.146157,164.146754 122.832382,156.138087 129.245867,141.653333 C129.6896,140.680533 129.9968,139.946667 130.2016,139.298133 L89.9413333,139.298133 L89.9413333,123.426133 L150.3744,123.306667 L137.5744,119.893333 L152.9344,79.5306667 C156.438213,78.7551947 160.012705,78.3434132 163.601067,78.3018667 C167.1753,78.2498385 170.745014,78.5759182 174.250667,79.2746667 C185.856,109.7216 197.455644,140.1856 209.0496,170.666667 C203.978725,173.998896 198.390398,176.467218 192.512,177.9712 L192.512,177.9712 Z" fill="#000000"></path>
    </g>
</svg>

<svg xmlns="http://www.w3.org/2000/svg" viewBox="0 0 256 256">
  <path d="M128 0C57.308 0 0 57.308 0 128c0 70.692 57.308 128 128 128 70.692 0 128-57.308 128-128A128 128 0 0 0 128 0zm64.512 177.971-28.809-75.742s-11.639 30.277-14.899 39.254c-2.253 6.229-3.908 10.888-7.902 16.469a53.316 53.316 0 0 1-22.186 17.835 51.763 51.763 0 1 1-20.054-99.55 49.493 49.493 0 0 1 31.983 11.076l-7.014 18.5c-4.642-4.778-10.957-11.332-25.259-11.332-18.306.376-33.011 15.21-33.229 33.519-.045 15.841 11.016 29.547 26.51 32.847 15.493 3.3 31.18-4.709 37.593-19.194.444-.972.75-1.706.956-2.355h-40.26v-15.872l60.432-.12-12.8-3.413 15.36-40.362a52.156 52.156 0 0 1 10.667-1.23 50.705 50.705 0 0 1 10.65.974c11.605 30.447 23.205 60.91 34.799 91.392a54.886 54.886 0 0 1-16.538 7.304z"/>
</svg>
